X:1
T:Kenek-kenek Ode
C:P. Ramlee
L:1/8
Q:1/4=90
M:4/4
K:C
c cc |:"C" (cA)(B(c)"G" c)ddf |"C" e>d"C" c3 c cc |
w: Ke- nek ke-|nek- lah o- de _ lem- bu pa-|toh tan- duk Cek Mek ke-|
"C" (cA)(B(c)"G" c)d/d/ df |"C" e>d c2"F" (f/f/d)"C" (e/e/c) |"G" (d/d/c)"C" (e/e/d)"F" (f/f/d)"C" (e/e/c) |
w: no- lah go- de * Cik A- we ke-|no tum- buk Uu wa a uu wa a|uu wa a uu wa a uu wa a uu wa a|
|1"G" d2 z2 z4 | Z | Z | Z | Z | z4 z c cc :|2"G" d2 z2 z4 |] 
w: uu|||||Ke- nek ke-|uu|
